X: 3
T: Scotch Mary
R: reel
M: 4/4
L: 1/8
K: Emin
G>A|B<EE>D E>FG>A|B<EE>D G3A|B<EB>A (3B^cd e>d|c>AB>G A2:|f>g|a>ba>g e>fe>d|^c>de>f g2~g2|a>ba>g e>ge>d|c>AB>G A2f>g|a>ba>g e>fe>d|^c>de>f g2f>g|a>fg>e f>de>d|c>AB>G A>F||


Tune 96	Setting 12651

